Newaita-dark/actions/32/distribute-horizontal-right.svg

<?xml version="1.0" encoding="UTF-8"?>
<svg xmlns="http://www.w3.org/2000/svg" xmlns:xlink="http://www.w3.org/1999/xlink" width="32pt" height="32pt" viewBox="0 0 32 32" version="1.1">
<g id="surface1">
<path style=" stroke:none;fill-rule:evenodd;fill:rgb(14.901961%,77.64706%,85.490197%);fill-opacity:1;" d="M 18.035156 2.234375 C 18.289062 2.234375 18.496094 2.441406 18.496094 2.695312 L 18.496094 8.226562 C 18.496094 8.578125 18.121094 8.796875 17.8125 8.632812 L 14.578125 5.867188 C 14.230469 5.578125 14.230469 5.347656 14.578125 5.058594 L 17.8125 2.289062 C 17.882812 2.253906 17.957031 2.234375 18.035156 2.234375 Z M 18.035156 2.234375 "/>
<path style=" stroke:none;fill-rule:evenodd;fill:rgb(14.901961%,77.64706%,85.490197%);fill-opacity:1;" d="M 21.5625 2.234375 C 21.308594 2.234375 21.101562 2.441406 21.101562 2.695312 L 21.101562 8.226562 C 21.101562 8.578125 21.476562 8.796875 21.785156 8.632812 L 25.019531 5.867188 C 25.367188 5.578125 25.367188 5.347656 25.019531 5.058594 L 21.785156 2.289062 C 21.714844 2.253906 21.640625 2.234375 21.5625 2.234375 Z M 21.5625 2.234375 "/>
<path style=" stroke:none;fill-rule:nonzero;fill:rgb(74.117649%,74.117649%,74.117649%);fill-opacity:1;" d="M 28.066406 5.542969 C 28.617188 5.542969 29.058594 5.984375 29.058594 6.535156 L 29.058594 11.523438 C 29.089844 11.621094 29.105469 11.722656 29.105469 11.828125 L 29.105469 20.425781 C 29.105469 20.53125 29.089844 20.632812 29.058594 20.730469 L 29.058594 28.363281 C 29.058594 28.914062 28.617188 29.355469 28.066406 29.355469 C 27.519531 29.355469 27.074219 28.914062 27.074219 28.363281 L 27.074219 21.417969 L 19.46875 21.417969 C 18.917969 21.417969 18.476562 20.976562 18.476562 20.425781 L 18.476562 11.828125 C 18.476562 11.277344 18.917969 10.835938 19.46875 10.835938 L 27.074219 10.835938 L 27.074219 6.535156 C 27.074219 5.984375 27.519531 5.542969 28.066406 5.542969 Z M 27.074219 12.820312 L 21.121094 12.820312 C 20.753906 12.820312 20.460938 13.113281 20.460938 13.480469 L 20.460938 18.773438 C 20.460938 19.140625 20.753906 19.433594 21.121094 19.433594 L 27.074219 19.433594 Z M 27.074219 12.820312 "/>
<path style=" stroke:none;fill-rule:nonzero;fill:rgb(74.117649%,74.117649%,74.117649%);fill-opacity:1;" d="M 12.191406 5.542969 C 12.742188 5.542969 13.183594 5.984375 13.183594 6.535156 L 13.183594 11.523438 C 13.214844 11.621094 13.230469 11.722656 13.230469 11.828125 L 13.230469 25.058594 C 13.230469 25.164062 13.214844 25.265625 13.183594 25.359375 L 13.183594 28.363281 C 13.183594 28.914062 12.742188 29.355469 12.191406 29.355469 C 11.640625 29.355469 11.199219 28.914062 11.199219 28.363281 L 11.199219 26.050781 L 3.589844 26.050781 C 3.042969 26.050781 2.597656 25.605469 2.597656 25.058594 L 2.597656 11.828125 C 2.597656 11.277344 3.042969 10.835938 3.589844 10.835938 L 11.199219 10.835938 L 11.199219 6.535156 C 11.199219 5.984375 11.640625 5.542969 12.191406 5.542969 Z M 11.199219 12.820312 L 5.246094 12.820312 C 4.878906 12.820312 4.582031 13.113281 4.582031 13.480469 L 4.582031 23.402344 C 4.582031 23.769531 4.878906 24.054688 5.246094 24.066406 L 11.199219 24.066406 Z M 11.199219 12.820312 "/>
</g>
</svg>

<svg xmlns="http://www.w3.org/2000/svg" width="32pt" height="32pt" viewBox="0 0 32 32"><path d="M18.035 2.234c.254 0 .461.207.461.461v5.532c0 .351-.375.57-.683.406l-3.235-2.766c-.348-.289-.348-.52 0-.808l3.235-2.77a.493.493 0 0 1 .222-.055zm0 0M21.563 2.234a.462.462 0 0 0-.461.461v5.532c0 .351.375.57.683.406l3.235-2.766c.347-.289.347-.52 0-.808l-3.235-2.77a.493.493 0 0 0-.223-.055zm0 0" fill-rule="evenodd" fill="#26c6da"/><path d="M28.066 5.543c.551 0 .993.441.993.992v4.988c.03.098.046.2.046.305v8.598a.994.994 0 0 1-.046.304v7.633c0 .551-.442.992-.993.992a.991.991 0 0 1-.992-.992v-6.945H19.47a.989.989 0 0 1-.992-.992v-8.598c0-.55.441-.992.992-.992h7.605v-4.3c0-.552.446-.993.992-.993zm-.992 7.277h-5.953a.657.657 0 0 0-.66.66v5.293c0 .368.293.66.66.66h5.953zm0 0M12.191 5.543c.551 0 .993.441.993.992v4.988c.03.098.046.2.046.305v13.23a.951.951 0 0 1-.046.301v3.004c0 .551-.442.992-.993.992a.989.989 0 0 1-.992-.992v-2.312H3.59a.994.994 0 0 1-.991-.992v-13.23c0-.552.445-.993.992-.993h7.61v-4.3c0-.552.44-.993.991-.993zM11.2 12.82H5.246a.66.66 0 0 0-.664.66v9.922c0 .368.297.653.664.664H11.2zm0 0" fill="#bdbdbd"/></svg>
